X: 17320
T: Hickey's
R: jig
M: 6/8
K: Dmajor
(3FGA||B2 AB GC C2|CB,FB, CB,DF|BGcB GCCG|CGcB AFGA|
B2 AF GC C2|CB,FB, CB,DF|BGcB GCCG|CGcB AFGA||
B2 dB fBdB|Bc dB GFDF|B2 dB fBdB|GccB GFDF|
B2 dB fBdB|Bc dB GFDF|B2 dB A2cA|G3A BFDF|

